X:7974
T:Water is Wide, The
O:england
M:4/4
L:1/8
R:Air
K:D
A,2DDE2|"D"F8|"D"F2EE"G"D2B,2|"D"A,8|"D"A,2A,2DDC2|"D"D8|"D"D2 DE F2 GF|
"A"E8|"A"E2 E2F2G2|"D"A8|"D"A2 GF E2 D2|"D"F8|"D"F2 E2 "G"D2B,2|"D"A,8|"
D"A,2 A,2 "G"B,2 D2|"D"D8|D2||
